X:191
U: ~ = !turn!
%%topmargin 3cm
T:Shores of Lough Gowna
B:Traditional Irish Fiddle Tunes. Randy Miller and Jack Perron.
Z:Transcribed by Ralph Palmer
S:Andrew Davey
R:Jig
L:1/8
M:6/8
K:BAeo
JB3 BAF | FEF DFA | B2 B BAF | d2 e fed |
B3 BAF | FEF DFA | def gfe | fdB B2 A ::
def a2 b | afb afe | dFA def | gfe fdB |
def a2 b | afb afe | def g2e | fdB B2 A :|]
